src/assets/duotone/CardSlash.svg

<svg width="24" height="24" viewBox="0 0 24 24"  xmlns="http://www.w3.org/2000/svg">
<path opacity="0.4" d="M21.9999 9V16.46C21.9999 18.75 20.1399 20.6 17.8499 20.6H6.3999L9.9699 17.03L11.2499 15.75L17.9999 9H21.9999Z" />
<path opacity="0.4" d="M15 9L4 20C2.8 19.28 2 17.96 2 16.46V9H15Z" />
<path d="M22 7.54003V9.00003H18L21.47 5.53003C21.81 6.12003 22 6.81003 22 7.54003Z" />
<path d="M20 4.00002L15 9.00002H2V7.54002C2 5.25002 3.86 3.40002 6.15 3.40002H17.85C18.64 3.40002 19.37 3.62002 20 4.00002Z" />
<path d="M8.21 15.79L6.75 17.25H6C5.59 17.25 5.25 16.91 5.25 16.5C5.25 16.09 5.59 15.75 6 15.75H8C8.07 15.75 8.14 15.76 8.21 15.79Z" />
<path d="M15.2502 16.5C15.2502 16.91 14.9102 17.25 14.5002 17.25H10.5002C10.3002 17.25 10.1102 17.16 9.97021 17.03L11.2502 15.75H14.5002C14.9102 15.75 15.2502 16.09 15.2502 16.5Z" />
<path d="M21.7699 2.23C21.4699 1.93 20.9799 1.93 20.6799 2.23L2.22988 20.69C1.92988 20.99 1.92988 21.48 2.22988 21.78C2.37988 21.92 2.56988 22 2.76988 22C2.96988 22 3.15988 21.92 3.30988 21.77L21.7699 3.31C22.0799 3.01 22.0799 2.53 21.7699 2.23Z" />
</svg>

<?xml version="1.0" encoding="UTF-8"?>
<svg width="24" height="24" viewBox="0 0 24 24" xmlns="http://www.w3.org/2000/svg">
 <path d="m22 9v7.46c0 2.29-1.86 4.14-4.15 4.14h-11.45l11.6-11.6h4z" opacity=".4"/>
 <path d="M15 9L4 20C2.8 19.28 2 17.96 2 16.46V9H15Z" opacity=".4"/>
 <path d="m22 7.54v1.46h-4l3.47-3.47c0.34 0.59 0.53 1.28 0.53 2.01z"/>
 <path d="m20 4-5 5h-13v-1.46c0-2.29 1.86-4.14 4.15-4.14h11.7c0.79 0 1.52 0.22 2.15 0.6z"/>
 <path d="m8.21 15.79-1.46 1.46h-0.75c-0.41 0-0.75-0.34-0.75-0.75s0.34-0.75 0.75-0.75h2c0.07 0 0.14 0.01 0.21 0.04z"/>
 <path d="m15.25 16.5c0 0.41-0.34 0.75-0.75 0.75h-4c-0.2 0-0.39-0.09-0.52999-0.22l1.28-1.28h3.25c0.41 0 0.75 0.34 0.75 0.75z"/>
 <path d="m21.77 2.23c-0.3-0.3-0.79-0.3-1.09 0l-18.45 18.46c-0.3 0.3-0.3 0.79 0 1.09 0.15 0.14 0.34 0.22 0.54 0.22s0.39-0.08 0.54-0.23l18.46-18.46c0.31-0.3 0.31-0.78 0-1.08z"/>
</svg>
